X: 40521
T: Tommy Hunt's Jig
R: slip jig
M: 9/8
K: Gmajor
d|:B2 G G2 F G3|B2 G G3 g2 d|
B2 G G2 F G3|E2 A A2 B cBA:|
|:d2 g g2 a f2 d|g2 B B2 A B2 c|
d2 g g2 a f2 d|1 e2 A A2 B cBA:|2 efg a2 f g2||

